dist/static/img/services/04.svg

<svg width="48" height="48" viewBox="0 0 48 48" fill="none" xmlns="http://www.w3.org/2000/svg">
<path d="M27.9933 12.8398C28.5124 12.9318 29.0091 12.5932 29.1027 12.0838L29.5935 9.4145L30.4113 12.1358C30.4146 12.1468 30.4181 12.1578 30.4218 12.1687C30.572 12.6083 30.9892 12.9027 31.4612 12.9027H31.4668C31.941 12.9003 32.3579 12.6013 32.5041 12.1584C32.5077 12.1477 32.511 12.137 32.5142 12.1262L33.3034 9.40803L33.8262 12.0931C33.9251 12.6016 34.4251 12.9353 34.9434 12.838C35.4615 12.7408 35.8012 12.2498 35.7021 11.7412L34.5364 5.75263C34.5356 5.74869 34.5349 5.74485 34.5341 5.741C34.4345 5.26241 34.018 4.90897 33.5213 4.8816C33.0275 4.85413 32.5705 5.15956 32.417 5.62419C32.4135 5.63488 32.4102 5.64566 32.407 5.65644L31.448 8.95897L30.4527 5.64716C30.4493 5.63591 30.4458 5.62475 30.442 5.61369C30.2834 5.15066 29.8253 4.85 29.3293 4.88272C28.8328 4.91544 28.4201 5.27338 28.326 5.7531C28.3253 5.75675 28.3246 5.76031 28.324 5.76388L27.2234 11.7506C27.1295 12.2601 27.4744 12.7478 27.9933 12.8398Z" fill="white"/>
<path d="M15.6418 12.9025C16.5471 12.9025 17.3609 12.6095 17.9957 12.0545C18.1196 11.946 18.2374 11.8268 18.3458 11.7C18.6849 11.3034 18.6323 10.7121 18.2283 10.3793C17.8246 10.0464 17.2221 10.098 16.883 10.4946C16.8335 10.5524 16.7803 10.6063 16.7252 10.6546C16.442 10.9021 16.0776 11.0276 15.6418 11.0276C14.4419 11.0276 13.4656 10.0692 13.4656 8.89126C13.4656 7.71329 14.4419 6.75488 15.6418 6.75488C16.0779 6.75488 16.4985 6.88088 16.8578 7.11919C17.2946 7.40898 17.8885 7.2962 18.1837 6.8671C18.479 6.43801 18.364 5.85526 17.927 5.56548C17.2506 5.11698 16.4605 4.87988 15.6418 4.87988C13.3886 4.87988 11.5557 6.67941 11.5557 8.89126C11.5557 11.1031 13.3886 12.9025 15.6418 12.9025Z" fill="white"/>
<path d="M22.9987 12.9023C24.4019 12.9023 25.5815 12.017 25.8034 10.7972C25.9715 9.87269 25.5527 8.6681 23.8729 8.05975C23.1341 7.79219 22.4441 7.50147 22.2015 7.3976C22.1182 7.32081 22.1172 7.22219 22.1254 7.16594C22.149 7.00441 22.2866 6.87513 22.5027 6.81119C23.3015 6.57485 24.0606 7.16613 24.0684 7.17213L24.1649 7.24019C24.5768 7.53063 25.1471 7.46069 25.4734 7.0795C25.8418 6.64919 25.7565 5.99481 25.2806 5.68197C24.1916 4.966 23.0932 4.67828 21.9518 5.01578C21.0225 5.29066 20.3646 6.01235 20.2348 6.89941C20.1126 7.73575 20.482 8.54041 21.1991 8.99931C21.2413 9.02631 21.2856 9.05003 21.3316 9.0701C21.3681 9.08603 22.2355 9.46516 23.2119 9.81869C23.588 9.95481 23.9723 10.1968 23.9231 10.4673C23.882 10.693 23.5597 11.0269 22.9986 11.0269C22.427 11.0269 21.8785 10.8037 21.5295 10.4296C21.1891 10.0646 20.606 10.0127 20.215 10.3248C19.7866 10.6668 19.7428 11.2863 20.1087 11.6827C20.824 12.4579 21.8773 12.9023 22.9987 12.9023Z" fill="white"/>
<path d="M6.93232 48H19.6548C20.1821 48 20.6098 47.5803 20.6098 47.0625C20.6098 46.5447 20.1821 46.125 19.6548 46.125H6.93232C5.2658 46.125 3.90994 44.7939 3.90994 43.1579V22.0591C3.90994 20.4447 5.28729 19.0922 6.93203 19.0922H12.7823C13.5547 19.0922 14.3077 19.3879 14.8669 19.9109L17.1817 22.0762C18.0942 22.9296 19.3237 23.413 20.5843 23.413H41.0082C42.6753 23.413 44.0901 24.7184 44.0901 26.3798V43.1578C44.0901 44.7939 42.7343 46.1249 41.0678 46.1249H28.057C27.5297 46.1249 27.102 46.5446 27.102 47.0624C27.102 47.5802 27.5297 47.9999 28.057 47.9999H41.0678C43.7874 47.9999 46.0001 45.8277 46.0001 43.1578V26.3798C46.0001 24.0101 44.2566 22.034 41.9632 21.6191V0.9375C41.9632 0.419719 41.5355 0 41.0082 0H6.68947C6.16214 0 5.7345 0.419719 5.7345 0.9375V17.362C3.59184 17.8889 2 19.7946 2 22.059V43.1578C2 45.8278 4.21266 48 6.93232 48ZM40.0533 1.875V21.5378H20.5842C19.8127 21.5378 19.0578 21.2416 18.4995 20.7188L16.1844 18.553C15.2731 17.701 14.0406 17.217 12.782 17.217H7.64444V1.875H40.0533Z" fill="white"/>
<path d="M20.6523 17.2168C20.6523 17.7346 21.08 18.1543 21.6073 18.1543H36.4016C36.9289 18.1543 37.3566 17.7346 37.3566 17.2168C37.3566 16.699 36.9289 16.2793 36.4016 16.2793H21.6073C21.08 16.2793 20.6523 16.6991 20.6523 17.2168Z" fill="white"/>
<path d="M26.9824 42.2217L27.273 41.2168C27.3181 41.0616 27.4779 40.9705 27.6371 41.01L28.6699 41.2647C29.6237 41.5003 30.6336 41.0812 31.1251 40.2451L32.2545 38.3242C32.7472 37.4888 32.613 36.4206 31.9281 35.7267L31.1865 34.9752C31.1863 34.975 31.1861 34.9749 31.186 34.9747C31.0719 34.8592 31.0721 34.6777 31.186 34.5622L31.928 33.8114C32.613 33.1174 32.7472 32.0493 32.2552 31.215L31.1252 29.2932C30.6337 28.4567 29.6236 28.0378 28.6705 28.2733L27.6375 28.5281C27.4775 28.5673 27.3179 28.4766 27.2732 28.3219L26.9817 27.3142C26.7108 26.3866 25.8361 25.7388 24.8547 25.7388H22.5936C21.6103 25.7388 20.7355 26.3872 20.466 27.3165L20.1754 28.3212C20.1303 28.4765 19.9701 28.5673 19.8113 28.5282L18.7785 28.2735C17.8244 28.0377 16.8147 28.457 16.3232 29.2931L15.194 31.2139C14.701 32.0494 14.8353 33.1176 15.5208 33.812L16.2617 34.5618C16.3762 34.6779 16.3765 34.8594 16.2619 34.9754L15.5205 35.7267C14.8353 36.4207 14.701 37.489 15.1932 38.3232L16.3231 40.245C16.8146 41.0813 17.8244 41.5009 18.7779 41.2649L19.8109 41.0101C19.9702 40.9709 20.1305 41.0616 20.1752 41.2163L20.4662 42.2224C20.7355 43.1509 21.6103 43.7993 22.5936 43.7993H24.8547C25.8361 43.7994 26.7108 43.1516 26.9824 42.2217ZM22.3032 41.7096L22.0123 40.7036C21.7348 39.7469 20.8594 39.1248 19.8927 39.1248C19.7125 39.1248 19.529 39.1464 19.3457 39.1915L18.3118 39.4465C18.181 39.4791 18.0441 39.4217 17.9772 39.3079L16.8465 37.3847C16.7797 37.2714 16.7982 37.1263 16.8919 37.0314L17.6331 36.2804C18.4699 35.4336 18.4703 34.1058 17.6331 33.2569L16.8917 32.5068C16.7982 32.4121 16.7797 32.2669 16.8472 32.1525L17.9773 30.2303C18.0441 30.1166 18.1811 30.0593 18.3123 30.092L19.3461 30.347C20.5117 30.6337 21.6832 29.9698 22.0125 28.8341L22.3031 27.8295C22.3398 27.7026 22.4593 27.614 22.5936 27.614H24.8546C24.9886 27.614 25.1083 27.7032 25.1449 27.8288L25.4359 28.8347C25.7648 29.9699 26.9364 30.6336 28.1025 30.347L29.1364 30.092C29.267 30.0594 29.4042 30.1168 29.4709 30.2306L30.6016 32.1537C30.6685 32.267 30.6499 32.4123 30.5567 32.5066L29.8145 33.2577C28.9782 34.1058 28.9784 35.4333 29.8147 36.2801L30.5565 37.0316C30.65 37.1263 30.6686 37.2716 30.6011 37.386L29.4709 39.3081C29.4041 39.4218 29.2669 39.4789 29.1359 39.4465L28.1022 39.1915C26.9361 38.9046 25.765 39.5687 25.4358 40.7044L25.1457 41.7075C25.1084 41.8353 24.9887 41.9245 24.8547 41.9245H22.5936C22.4593 41.9244 22.3398 41.8358 22.3032 41.7096Z" fill="white"/>
<path d="M27.2615 34.7692C27.2615 32.8537 25.6741 31.2954 23.723 31.2954C21.7724 31.2954 20.1855 32.8537 20.1855 34.7692C20.1855 36.6846 21.7724 38.2429 23.723 38.2429C25.6741 38.2429 27.2615 36.6846 27.2615 34.7692ZM23.723 36.3679C22.8257 36.3679 22.0955 35.6508 22.0955 34.7692C22.0955 33.8877 22.8257 33.1704 23.723 33.1704C24.621 33.1704 25.3515 33.8876 25.3515 34.7692C25.3515 35.6508 24.6211 36.3679 23.723 36.3679Z" fill="white"/>
<path d="M24.637 46.5422C24.4104 46.2117 23.9799 46.0501 23.588 46.1595C23.1874 46.2713 22.8992 46.6293 22.888 47.0396C22.8653 47.8742 23.9435 48.3167 24.532 47.7105C24.8367 47.3967 24.8827 46.9037 24.637 46.5422Z" fill="white"/>
</svg>

<svg width="48" height="48" viewBox="0 0 48 48" fill="none" xmlns="http://www.w3.org/2000/svg"><path d="M27.993 12.84a.954.954 0 001.11-.756l.49-2.67.818 2.722a1.093 1.093 0 001.05.767h.006a1.092 1.092 0 001.047-.777l.79-2.718.522 2.685a.954.954 0 001.117.745.938.938 0 00.76-1.097l-1.167-5.988-.002-.012a1.091 1.091 0 00-1.013-.86 1.099 1.099 0 00-1.114.775l-.959 3.303-.995-3.312a1.098 1.098 0 00-1.123-.764 1.09 1.09 0 00-1.004.87l-.002.01-1.1 5.988a.939.939 0 00.77 1.089zm-12.351.062c.905 0 1.719-.292 2.354-.847.124-.109.241-.228.35-.355a.926.926 0 00-.118-1.32.967.967 0 00-1.345.115c-.05.057-.103.111-.158.16-.283.247-.647.373-1.083.373-1.2 0-2.176-.959-2.176-2.137s.976-2.136 2.176-2.136c.436 0 .857.126 1.216.364a.966.966 0 001.326-.252.927.927 0 00-.257-1.302 4.121 4.121 0 00-2.285-.685c-2.253 0-4.086 1.8-4.086 4.011 0 2.212 1.833 4.011 4.086 4.011zm7.357 0c1.403 0 2.582-.885 2.804-2.105.168-.924-.25-2.129-1.93-2.737a33.574 33.574 0 01-1.672-.662.256.256 0 01-.076-.232c.024-.162.162-.29.378-.355.799-.236 1.558.355 1.565.361l.097.068c.412.29.982.22 1.308-.16a.938.938 0 00-.192-1.398c-1.09-.716-2.188-1.004-3.33-.666-.928.275-1.586.996-1.716 1.883a2.107 2.107 0 00.964 2.1.942.942 0 00.133.071c.036.016.903.395 1.88.749.376.136.76.378.711.648-.041.226-.363.56-.924.56-.572 0-1.12-.223-1.47-.597a.981.981 0 00-1.314-.105.926.926 0 00-.106 1.358c.715.775 1.768 1.22 2.89 1.22z" fill="#fff"/><path d="M6.932 48h12.723c.527 0 .955-.42.955-.938a.946.946 0 00-.955-.937H6.932c-1.666 0-3.022-1.331-3.022-2.967V22.059c0-1.614 1.377-2.967 3.022-2.967h5.85c.773 0 1.526.296 2.085.819l2.315 2.165a5.007 5.007 0 003.402 1.337h20.424c1.667 0 3.082 1.305 3.082 2.967v16.778c0 1.636-1.356 2.967-3.022 2.967H28.057a.946.946 0 00-.955.937c0 .518.428.938.955.938h13.01C43.788 48 46 45.828 46 43.158V26.38c0-2.37-1.743-4.346-4.037-4.76V.936A.946.946 0 0041.008 0H6.69a.946.946 0 00-.955.938v16.424C3.592 17.889 2 19.795 2 22.059v21.099C2 45.828 4.213 48 6.932 48zM40.053 1.875v19.663H20.584a3.068 3.068 0 01-2.084-.82l-2.316-2.165a5.014 5.014 0 00-3.402-1.336H7.644V1.875h32.41z" fill="#fff"/><path d="M20.652 17.217c0 .518.428.937.955.937h14.795c.527 0 .955-.42.955-.937a.946.946 0 00-.955-.938H21.607a.946.946 0 00-.955.938zm6.33 25.005l.291-1.005a.301.301 0 01.364-.207l1.033.255a2.237 2.237 0 002.455-1.02l1.13-1.92a2.149 2.149 0 00-.327-2.598l-.742-.752a.292.292 0 010-.413l.742-.75c.685-.695.82-1.763.327-2.597l-1.13-1.922a2.237 2.237 0 00-2.454-1.02l-1.034.255a.301.301 0 01-.364-.206l-.291-1.008a2.218 2.218 0 00-2.127-1.575h-2.261c-.984 0-1.859.648-2.128 1.578l-.29 1.004a.302.302 0 01-.365.207l-1.032-.255a2.237 2.237 0 00-2.456 1.02l-1.129 1.92a2.148 2.148 0 00.327 2.599l.74.75a.292.292 0 010 .413l-.74.752a2.148 2.148 0 00-.328 2.596l1.13 1.922a2.236 2.236 0 002.455 1.02l1.033-.255a.3.3 0 01.364.206l.291 1.006a2.216 2.216 0 002.128 1.577h2.26c.982 0 1.857-.647 2.128-1.577zm-4.679-.512l-.29-1.006a2.196 2.196 0 00-2.12-1.58c-.18 0-.364.022-.547.067l-1.034.255a.304.304 0 01-.335-.138l-1.13-1.923a.292.292 0 01.045-.354l.741-.75a2.134 2.134 0 000-3.024l-.741-.75a.292.292 0 01-.045-.354l1.13-1.923a.304.304 0 01.335-.138l1.034.255c1.166.287 2.337-.377 2.666-1.513l.291-1.005a.302.302 0 01.29-.215h2.262c.134 0 .253.09.29.215l.29 1.006c.33 1.135 1.501 1.799 2.668 1.512l1.033-.255a.304.304 0 01.335.139l1.13 1.923a.292.292 0 01-.044.353l-.742.75a2.134 2.134 0 000 3.023l.741.752a.29.29 0 01.045.354l-1.13 1.922a.304.304 0 01-.335.139l-1.034-.256c-1.166-.286-2.337.378-2.666 1.513l-.29 1.004a.304.304 0 01-.291.217h-2.261a.303.303 0 01-.29-.215z" fill="#fff"/><path d="M27.262 34.77c0-1.916-1.588-3.475-3.539-3.475-1.95 0-3.537 1.559-3.537 3.474 0 1.916 1.586 3.474 3.537 3.474 1.951 0 3.539-1.558 3.539-3.474zm-3.539 1.598c-.897 0-1.627-.717-1.627-1.599 0-.881.73-1.599 1.627-1.599.898 0 1.629.718 1.629 1.6 0 .88-.73 1.598-1.629 1.598zm.914 10.174a.973.973 0 00-1.049-.383.951.951 0 00-.7.88c-.023.835 1.055 1.278 1.644.672a.934.934 0 00.105-1.169z" fill="#fff"/></svg>
